X:1
T:There’s a Beautiful Land on High
T:There’s a Beautiful Land on High
T:William U. Butcher
T:James Nicholson, 1859
T:Public Domain Courtesy of the Cyber Hymnal™
T:Public Domain Courtesy of the Cyber Hymnal™
C:William U. Butcher
Z:Public Domain
Z:Courtesy of the Cyber Hymnal™
%%score ( 1 2 ) ( 3 4 )
L:1/8
M:6/4
K:Eb
V:1 treble 
V:2 treble 
V:3 bass 
V:4 bass 
V:1
 E[DF] | [EG]3 [E^F] [EG]2 [DB]4 [B,D]2 | [B,E]6- [B,E]4 [B,D][CE] | %3
w: 1.~There’s a|beau- ti- ful land on|high, * To its|
w: 2.~There’s a|beau- ti- ful land on|high, * And my|
w: 3.~There’s a|beau- ti- ful land on|high, * And though|
w: 4.~There’s a|beau- ti- ful land on|high, * Where we|
 [DF]3 [^C=E] [DF]2 [FA]4 [_EG]2 | [DF]6- [DF]4 ([EG][FA]) | %5
w: glor- ies I fain would|fly, * When~by *|
w: kin- dred its bliss en-|joy; * Me- *|
w: here I oft weep and|sigh, * My *|
w: ne- ver shall say, “Good-|bye”; * When *|
 [GB]3 [^F=A] [GB]2 ([EG]2 [EG]2) ([GB][GB]) | [Ge]3 [Fd] [Ge]2 !fermata![Ac]4 [Ac][Ac] | %7
w: sor- row pressed down, * I *|long for my crown, In that|
w: thinks I now see * how~they’re *|wait- ing for me, In that|
w: Je- sus hath said * that~no *|tears shall be shed In that|
w: o- ver the river * we’re *|hap- py for ever In that|
 [GB]3 [FA] [EG]2 [DA]4 [B,D]2 | [B,E]6- [B,E]4 ||"^Refrain" [EG][EG] | %10
w: beau- ti- ful land on|high. *||
w: beau- ti- ful land on|high. *|In that|
w: beau- ti- ful land on|high. *||
w: beau- ti- ful land on|high. *||
 [EG]3 [EG] [EG]2 [GB]4 [Ac]2 | [GB]6- [GB]4 [EG]2 | [DF]3 [DF] [DF]2 [DF]4 E2 | %13
w: |||
w: beau- ti- ful land I’ll|be * From|earth and its cares set|
w: |||
w: |||
 [DF]6- [DF]4 [DF]2 | [EG]3 [EG] [EG]2 !fermata![GB]4 [EB]2 | %15
w: ||
w: free; * My|Je- sus is there, He’s|
w: ||
w: ||
 [Ec]3 [Ec] [Ec]2 !fermata![Ee]4 (dc) | [EB]3 [DA] [EG]2 [DA]4 [B,D]2 | [B,E]6- [B,E]4 |] %18
w: |||
w: gone to pre- pare A *|place in that land for|me. *|
w: |||
w: |||
V:2
 E x | x12 | x12 | x12 | x12 | x12 | x12 | x12 | x10 || x2 | x12 | x12 | x10 E2 | x12 | x12 | %15
 x10 E2 | x12 | x10 |] %18
V:3
 E,E, | E,3 E, E,2 B,,4 B,,2 | E,6- E,4 B,,B,, | B,,3 B,, B,,2 B,,4 B,,2 | B,,6- B,,4 E,E, | %5
 E,3 E, E,2 E,2 E,2 E,E, | E,3 E, E,2 A,,4 A,,A,, | B,,3 B,, B,,2 B,,4 B,,2 | E,6- E,4 || %9
 [E,B,][E,B,] | [E,B,]3 [E,B,] [E,B,]2 (B,2 E2) [E,E]2 | [E,E]6- [E,E]4 [E,B,]2 | %12
 [B,,B,]3 [B,,B,] [B,,B,]2 (B,3 A,) [C,G,]2 | [B,,B,]6- [B,,B,]4 [B,,B,]2 | %14
 [E,B,]3 [E,B,] [E,B,]2 [E,E]4 [E,G,]2 | [A,,A,]3 [A,,A,] [A,,A,]2 [A,,C]4 (B,A,) | %16
 [B,,G,]3 [B,,F,] [B,,E,]2 [B,,F,]4 (F,A,) | [E,G,]6- [E,G,]4 |] %18
V:4
 x2 | x12 | x12 | x12 | x12 | x12 | x12 | x12 | x10 || x2 | x6 E,4 x2 | x12 | x6 B,,4 x2 | x12 | %14
 x12 | x10 A,,2 | x10 B,,2 | x10 |] %18

